symbols/web/send_to_mobile/materialsymbolsoutlined/send_to_mobile_gradN25fill1_20px.svg

<svg xmlns="http://www.w3.org/2000/svg" height="20" width="20"><path d="m14.083 13.25-1.166-1.167 1.291-1.271h-4.166V9.167h4.166l-1.291-1.25 1.166-1.167 3.25 3.25Zm-8.104 5.708q-.687 0-1.167-.479-.479-.479-.479-1.167V2.688q0-.688.479-1.167.48-.479 1.167-.479h8.042q.687 0 1.167.479.479.479.479 1.167v3.166h-1.646V5.25H5.979v9.5h8.042v-.604h1.646v3.166q0 .688-.479 1.167-.48.479-1.167.479Z"/></svg>

<svg xmlns="http://www.w3.org/2000/svg" height="20" width="20"><path d="M14.083 13.25 12.917 12.083 14.208 10.812H10.042V9.167H14.208L12.917 7.917L14.083 6.75L17.333 10ZM5.979 18.958Q5.292 18.958 4.812 18.479Q4.333 18 4.333 17.312V2.688Q4.333 2 4.812 1.521Q5.292 1.042 5.979 1.042H14.021Q14.708 1.042 15.188 1.521Q15.667 2 15.667 2.688V5.854H14.021V5.25H5.979V14.75H14.021V14.146H15.667V17.312Q15.667 18 15.188 18.479Q14.708 18.958 14.021 18.958Z"/></svg>
